img/twitter.svg

<svg width="21" height="18" viewBox="0 0 21 18" fill="none" xmlns="http://www.w3.org/2000/svg">
<path id="twitter" d="M20.6667 2.79746C19.9309 3.12412 19.14 3.34412 18.31 3.44329C19.1575 2.93579 19.8084 2.13162 20.1142 1.17329C19.3217 1.64329 18.4434 1.98496 17.5084 2.16912C16.7609 1.37162 15.6934 0.873291 14.5134 0.873291C11.8642 0.873291 9.91752 3.34496 10.5159 5.91079C7.10669 5.73996 4.08335 4.10662 2.05919 1.62412C0.984187 3.46829 1.50169 5.88079 3.32835 7.10246C2.65669 7.08079 2.02335 6.89662 1.47085 6.58912C1.42585 8.48996 2.78835 10.2683 4.76169 10.6641C4.18419 10.8208 3.55169 10.8575 2.90835 10.7341C3.43002 12.3641 4.94502 13.55 6.74169 13.5833C5.01669 14.9358 2.84335 15.54 0.666687 15.2833C2.48252 16.4475 4.64002 17.1266 6.95669 17.1266C14.575 17.1266 18.8792 10.6925 18.6192 4.92162C19.4209 4.34246 20.1167 3.61996 20.6667 2.79746Z" fill="white"/>
</svg>

<svg width="21" height="18" fill="none" xmlns="http://www.w3.org/2000/svg"><path d="M20.667 2.797a8.192 8.192 0 0 1-2.357.646 4.11 4.11 0 0 0 1.804-2.27 8.22 8.22 0 0 1-2.606.996A4.096 4.096 0 0 0 14.513.873c-2.649 0-4.595 2.472-3.997 5.038a11.648 11.648 0 0 1-8.457-4.287 4.109 4.109 0 0 0 1.27 5.478A4.086 4.086 0 0 1 1.47 6.59c-.045 1.901 1.317 3.68 3.29 4.075a4.111 4.111 0 0 1-1.853.07 4.106 4.106 0 0 0 3.834 2.85 8.25 8.25 0 0 1-6.075 1.7 11.616 11.616 0 0 0 6.29 1.843c7.618 0 11.922-6.434 11.662-12.205a8.353 8.353 0 0 0 2.048-2.125Z" fill="#fff"/></svg>
